X: 30496
T: Olga's
R: waltz
M: 3/4
K: Gmajor
|:FE|D2 G3 A|B4 c2|B6|A6|D2 F3 G|A4 B2|A6|G4- GF|
G2 B3 c|d4 e2|d6|c6|B2 D2 B2|B4 A2|G6-|G4:|
d^c|c2 E3 G|d4 c2|B2 D3 G|c4 B2|A2 C3 E|B4 A2|GA BF GE|D2 d3 ^c|
c2 E2 G2|d4 c2|B2 D2 G2|c4 B2|A2 C2 E2|B4 A2|G/A/G FG Bd|g4 f2||
fe ^de fe|A2 B2 c2|ed ^cd ed|G2 A2 B2|dc Bc dc|F2 d3 c|^A4 B2|G2 B2 d2|
fe ^de fe|A2 B2 c2|ed ^cd ed|G2 A2 B2|dc Bc AF|fe dc BA|G/A/G B2 d2|g4||

